X:1
T:Title
%%score ( 1 2 ) ( 3 4 )
L:1/8
Q:1/4=90
M:4/4
K:Eb
V:1 treble nm="Midi_20"
V:2 treble 
V:3 bass nm="Midi_20"
V:4 bass 
V:1
"^Bevan (66. 66. and refrain)""^John Goss\n(1800-80)" E2 | E2 F2 G2 A2 | B6 B2 | B2 B2 A2 G2 | %4
 F6 || F2 | G2 A2 B2 cd | e6 d2 | c2 B2 B2 =A2 | B6 ||"^Refrain" B2 | c2 e2 d2 c2 | B2 A2 G2 E2 | %13
 A2 c2 B2 A2 | G4 F4 | E6 |] %16
V:2
 B,2 | B,2 D2 E2 E2 | D6 E2 | F2 E2 E2 E2 | D6 || D2 | E2 E2 E2 A2 | G6 F2 | E2 D2 G2 F2 | F6 || %10
 G2 | E2 E2 F2 G2 | F2 D2 E2 E2 | E2 E2 E2 F2 | E4 D4 | E6 |] %16
V:3
 G,2 | B,2 A,2 G,2 E,2 | F,6 G,2 | F,2 G,2 C2 B,2 | B,6 || B,2 | B,2 C2 B,2 A,2 | B,6 B,2 | %8
 G,=A, B,2 C2 C2 | D6 || ED | C2 B,2 A,2 G,A, | B,2 F,2 G,2 G,2 | A,2 A,2 B,2 C2 | B,6 A,2 | G,6 |] %16
V:4
 E,2 | G,2 F,2 E,2 C,2 | B,,6 E,2 | D,2 E,2 C,D, E,2 | B,,6 || B,,2 | E,2 A,2 G,2 F,2 | E,6 B,,2 | %8
 C,2 D,2 E,2 F,2 | B,,6 || E,2 | A,2 G,2 F,2 E,2 | D,2 B,,2 E,2 _D,2 | C,2 A,,2 G,,2 A,,2 | %14
 B,,4 B,,4 | E,6 |] %16

